public/images/icons/editor/list-ul.svg

<svg xmlns="http://www.w3.org/2000/svg" height="13" viewBox="0 0 21.6 13.5"><path d="M6.4 1.5h14.5a.7.7 0 0 0 .7-.7.7.7 0 0 0-.7-.7H6.4a.8.8 0 0 0-.8.7.8.8 0 0 0 .8.7zM6.4 7.5h14.5a.7.7 0 0 0 .7-.7.7.7 0 0 0-.7-.7H6.4a.8.8 0 0 0-.8.7.8.8 0 0 0 .8.7zM6.4 13.5h14.5a.7.7 0 0 0 .7-.7.7.7 0 0 0-.7-.7H6.4a.8.8 0 0 0-.8.7.8.8 0 0 0 .8.7zM.9 1.5h1a.8.8 0 0 0 .9-.7.8.8 0 0 0-.9-.8h-1a.8.8 0 0 0-.9.7.8.8 0 0 0 .9.8zM.9 7.5h1a.8.8 0 0 0 .9-.7.8.8 0 0 0-.9-.8h-1a.8.8 0 0 0-.9.7.8.8 0 0 0 .9.8zM.9 13.5h1a.8.8 0 0 0 .9-.7.8.8 0 0 0-.9-.7h-1a.8.8 0 0 0-.9.7.8.8 0 0 0 .9.7z"/></svg>

<svg xmlns="http://www.w3.org/2000/svg" height="13" viewBox="0 0 21.6 13.5">
    <path d="M6.4,1.5H20.9a.7.7,0,0,0,.7-.7h0a.7.7,0,0,0-.7-.7H6.4a.8.8,0,0,0-.8.7h0A.8.8,0,0,0,6.4,1.5Z"/>
    <path d="M6.4,7.5H20.9a.7.7,0,0,0,.7-.7h0a.7.7,0,0,0-.7-.7H6.4a.8.8,0,0,0-.8.7h0A.8.8,0,0,0,6.4,7.5Z"/>
    <path d="M6.4,13.5H20.9a.7.7,0,0,0,.7-.7h0a.7.7,0,0,0-.7-.7H6.4a.8.8,0,0,0-.8.7h0A.8.8,0,0,0,6.4,13.5Z"/>
    <path d="M.9,1.5h1A.8.8,0,0,0,2.8.8h0A.8.8,0,0,0,1.9,0H.9A.8.8,0,0,0,0,.7H0A.8.8,0,0,0,.9,1.5Z"/>
    <path d="M.9,7.5h1a.8.8,0,0,0,.9-.7h0A.8.8,0,0,0,1.9,6H.9a.8.8,0,0,0-.9.7H0A.8.8,0,0,0,.9,7.5Z"/>
    <path d="M.9,13.5h1a.8.8,0,0,0,.9-.7h0a.8.8,0,0,0-.9-.7H.9a.8.8,0,0,0-.9.7H0A.8.8,0,0,0,.9,13.5Z"/>
</svg>
